Hatter-kde-dark/actions/22/milestone.svg

<svg xmlns="http://www.w3.org/2000/svg" viewBox="0 0 22 22">
  <defs id="defs3051">
    <style type="text/css" id="current-color-scheme">
      .ColorScheme-Text {
        color:#dedede;
      }
      </style>
  </defs>
 <path 
     style="fill:currentColor;fill-opacity:1;stroke:none" 
     d="M 3 3 L 3 4 L 3 18 L 3 19 L 4 19 L 19 19 L 19 18 L 19 3 L 4 3 L 3 3 z M 4 4 L 18 4 L 18 18 L 4 18 L 4 4 z M 11 6 L 9.453125 9.2910156 L 6 9.8183594 L 8.5 12.380859 L 7.9101562 16 L 11 14.291016 L 14.089844 16 L 13.5 12.380859 L 16 9.8183594 L 12.546875 9.2910156 L 11 6 z "
     class="ColorScheme-Text"
     />
</svg>

<?xml version="1.0" encoding="UTF-8"?>
<svg viewBox="0 0 22 22" xmlns="http://www.w3.org/2000/svg">
 <defs id="defs3051">
  <style id="current-color-scheme" type="text/css">.ColorScheme-Text {
        color:#dedede;
      }</style>
 </defs>
 <path class="ColorScheme-Text" d="m3 3v1 14 1h1 15v-1-15h-15-1zm1 1h14v14h-14v-14zm7 2-1.5469 3.291-3.4531 0.52734 2.5 2.5625-0.58984 3.6191 3.0898-1.709 3.0898 1.709-0.58984-3.6191 2.5-2.5625-3.4531-0.52734-1.5469-3.291z" fill="currentColor"/>
</svg>
